overrides/.icons/rsc/spd.svg

<?xml version="1.0" encoding="UTF-8" standalone="no"?>
<!-- Created with Inkscape (http://www.inkscape.org/) -->

<svg
   viewBox="0 0 24 24"
   version="1.1"
   id="svg1"
   xml:space="preserve"
   inkscape:version="1.3.2 (091e20e, 2023-11-25, custom)"
   sodipodi:docname="movement.svg"
   xmlns:inkscape="http://www.inkscape.org/namespaces/inkscape"
   xmlns:sodipodi="http://sodipodi.sourceforge.net/DTD/sodipodi-0.dtd"
   xmlns:xlink="http://www.w3.org/1999/xlink"
   xmlns="http://www.w3.org/2000/svg"
   xmlns:svg="http://www.w3.org/2000/svg"><sodipodi:namedview
     id="namedview1"
     pagecolor="#ffffff"
     bordercolor="#666666"
     borderopacity="1.0"
     inkscape:showpageshadow="2"
     inkscape:pageopacity="0.0"
     inkscape:pagecheckerboard="0"
     inkscape:deskcolor="#d1d1d1"
     inkscape:document-units="px"
     inkscape:zoom="5.6568543"
     inkscape:cx="-23.688077"
     inkscape:cy="14.407301"
     inkscape:window-width="1360"
     inkscape:window-height="715"
     inkscape:window-x="-8"
     inkscape:window-y="-8"
     inkscape:window-maximized="1"
     inkscape:current-layer="layer1" /><defs
     id="defs1"><inkscape:path-effect
       effect="fillet_chamfer"
       id="path-effect4"
       is_visible="true"
       lpeversion="1"
       nodesatellites_param="F,0,0,1,0,0,0,1 @ F,0,1,1,0,27.077203,0,1 @ F,0,0,1,0,0,0,1 @ F,0,1,1,0,27.077203,0,1 @ F,0,0,1,0,0,0,1 @ F,0,0,1,0,27.077203,0,1 @ F,0,0,1,0,0,0,1 @ F,0,1,1,0,27.077203,0,1"
       radius="0"
       unit="px"
       method="auto"
       mode="F"
       chamfer_steps="1"
       flexible="false"
       use_knot_distance="true"
       apply_no_radius="true"
       apply_with_radius="true"
       only_selected="false"
       hide_knots="false" /><inkscape:path-effect
       effect="fillet_chamfer"
       id="path-effect3"
       is_visible="true"
       lpeversion="1"
       nodesatellites_param="F,0,0,1,0,0,0,1 @ F,0,0,1,0,0,0,1 @ F,0,0,1,0,0,0,1 @ F,0,0,1,0,0,0,1 @ F,0,0,1,0,0,0,1 @ F,0,0,1,0,0,0,1 @ F,0,0,1,0,0,0,1 @ F,0,0,1,0,0,0,1 @ F,0,0,1,0,0,0,1 @ F,0,0,1,0,0,0,1 @ F,0,0,1,0,0,0,1 @ F,0,0,1,0,0,0,1"
       radius="0"
       unit="px"
       method="auto"
       mode="F"
       chamfer_steps="1"
       flexible="false"
       use_knot_distance="true"
       apply_no_radius="true"
       apply_with_radius="true"
       only_selected="false"
       hide_knots="false" /><inkscape:path-effect
       effect="fillet_chamfer"
       id="path-effect2"
       is_visible="true"
       lpeversion="1"
       nodesatellites_param="F,0,0,1,0,0,0,1 @ F,0,1,1,0,14.213301,0,1 @ F,0,0,1,0,0,0,1 @ F,0,1,1,0,14.213301,0,1 @ F,0,0,1,0,0,0,1 @ F,0,0,1,0,14.213301,0,1 @ F,0,0,1,0,0,0,1 @ F,0,1,1,0,14.213301,0,1"
       radius="0"
       unit="px"
       method="auto"
       mode="F"
       chamfer_steps="1"
       flexible="false"
       use_knot_distance="true"
       apply_no_radius="true"
       apply_with_radius="true"
       only_selected="false"
       hide_knots="false" /><inkscape:path-effect
       effect="fillet_chamfer"
       id="path-effect1"
       is_visible="true"
       lpeversion="1"
       nodesatellites_param="F,0,0,1,0,0,0,1 @ F,0,0,1,0,0,0,1 @ F,0,0,1,0,0,0,1 @ F,0,0,1,0,0,0,1 @ F,0,0,1,0,0,0,1 @ F,0,0,1,0,0,0,1 @ F,0,0,1,0,0,0,1 @ F,0,0,1,0,0,0,1"
       radius="0"
       unit="px"
       method="auto"
       mode="F"
       chamfer_steps="1"
       flexible="false"
       use_knot_distance="true"
       apply_no_radius="true"
       apply_with_radius="true"
       only_selected="false"
       hide_knots="false" /><inkscape:path-effect
       effect="fillet_chamfer"
       id="path-effect4-4"
       is_visible="true"
       lpeversion="1"
       nodesatellites_param="F,0,0,1,0,0,0,1 @ F,0,1,1,0,27.077203,0,1 @ F,0,0,1,0,0,0,1 @ F,0,1,1,0,27.077203,0,1 @ F,0,0,1,0,0,0,1 @ F,0,0,1,0,27.077203,0,1 @ F,0,0,1,0,0,0,1 @ F,0,1,1,0,27.077203,0,1"
       radius="0"
       unit="px"
       method="auto"
       mode="F"
       chamfer_steps="1"
       flexible="false"
       use_knot_distance="true"
       apply_no_radius="true"
       apply_with_radius="true"
       only_selected="false"
       hide_knots="false" /><inkscape:path-effect
       effect="fillet_chamfer"
       id="path-effect4-9"
       is_visible="true"
       lpeversion="1"
       nodesatellites_param="F,0,0,1,0,0,0,1 @ F,0,1,1,0,27.077203,0,1 @ F,0,0,1,0,0,0,1 @ F,0,1,1,0,27.077203,0,1 @ F,0,0,1,0,0,0,1 @ F,0,0,1,0,27.077203,0,1 @ F,0,0,1,0,0,0,1 @ F,0,1,1,0,27.077203,0,1"
       radius="0"
       unit="px"
       method="auto"
       mode="F"
       chamfer_steps="1"
       flexible="false"
       use_knot_distance="true"
       apply_no_radius="true"
       apply_with_radius="true"
       only_selected="false"
       hide_knots="false" /><inkscape:path-effect
       effect="fillet_chamfer"
       id="path-effect4-5"
       is_visible="true"
       lpeversion="1"
       nodesatellites_param="F,0,0,1,0,0,0,1 @ F,0,1,1,0,27.077203,0,1 @ F,0,0,1,0,0,0,1 @ F,0,1,1,0,27.077203,0,1 @ F,0,0,1,0,0,0,1 @ F,0,0,1,0,27.077203,0,1 @ F,0,0,1,0,0,0,1 @ F,0,1,1,0,27.077203,0,1"
       radius="0"
       unit="px"
       method="auto"
       mode="F"
       chamfer_steps="1"
       flexible="false"
       use_knot_distance="true"
       apply_no_radius="true"
       apply_with_radius="true"
       only_selected="false"
       hide_knots="false" /><inkscape:path-effect
       effect="fillet_chamfer"
       id="path-effect4-5-8"
       is_visible="true"
       lpeversion="1"
       nodesatellites_param="F,0,0,1,0,0,0,1 @ F,0,1,1,0,27.077203,0,1 @ F,0,0,1,0,0,0,1 @ F,0,1,1,0,27.077203,0,1 @ F,0,0,1,0,0,0,1 @ F,0,0,1,0,27.077203,0,1 @ F,0,0,1,0,0,0,1 @ F,0,1,1,0,27.077203,0,1"
       radius="0"
       unit="px"
       method="auto"
       mode="F"
       chamfer_steps="1"
       flexible="false"
       use_knot_distance="true"
       apply_no_radius="true"
       apply_with_radius="true"
       only_selected="false"
       hide_knots="false" /><inkscape:path-effect
       effect="fillet_chamfer"
       id="path-effect4-5-8-6"
       is_visible="true"
       lpeversion="1"
       nodesatellites_param="F,0,0,1,0,0,0,1 @ F,0,1,1,0,27.077203,0,1 @ F,0,0,1,0,0,0,1 @ F,0,1,1,0,27.077203,0,1 @ F,0,0,1,0,0,0,1 @ F,0,0,1,0,27.077203,0,1 @ F,0,0,1,0,0,0,1 @ F,0,1,1,0,27.077203,0,1"
       radius="0"
       unit="px"
       method="auto"
       mode="F"
       chamfer_steps="1"
       flexible="false"
       use_knot_distance="true"
       apply_no_radius="true"
       apply_with_radius="true"
       only_selected="false"
       hide_knots="false" /></defs><g
     inkscape:label="Layer 1"
     inkscape:groupmode="layer"
     id="layer1"
     transform="translate(1.2236983,-0.06614588)"><image
       width="6.6145835"
       height="6.6145835"
       preserveAspectRatio="none"
       style="image-rendering:optimizeQuality"
       xlink:href="data:image/png;base64,iVBORw0KGgoAAAANSUhEUgAAABkAAAAZCAYAAADE6YVjAAAABHNCSVQICAgIfAhkiAAAAXZJREFU&#10;SInt1c1KVWEUxvG3c47mB07siMopcpCzkO7AWxARHGjiKBpYEE0bRjMbldSgHDbrDoJyFASCVyCk&#10;iJUaqNBEz6/BXtFG/Gp79iif6eZd/7WeZ73vTulSZQsD6Cwb8A7jZUIeo4mPuH6eM5UCnLWU0k5K&#10;aTSl9AgdBWqcLtTwAPvYxT1UW1W8ihvoRAfmcYjvmLkwCFcxiWU8DGAvXkc+33C/kHVR/A4WsCPT&#10;D8yign68xQH28Bw3jyt0JQ60oRt1DEfni/ga3ea1GRa14RpeRkZNfI4mGqjlQe2x/6N4gk/YdrpW&#10;cDvON/A+920rMus7Ok0NXdHZrZjkFVaPmWQD0zFJPezcly3CEqai6bOXIYqM4EV0RxbyXX8zeRPF&#10;f+IZGv8cfs7OMXzBXAB6ZaE3sRbg9kKAHKiCIdly9ITnB1jHOIq8HifCqrL361dYNNNSQEAmZHel&#10;iacXtugEyJ9X+AMGWw4ISPn/kwANoqtUyP+r33T2WdwzhxiHAAAAAElFTkSuQmCC&#10;"
       id="image1"
       x="174.22902"
       y="132.1955" /><path
       id="path3-6"
       style="stroke:none;stroke-width:0.0501204;paint-order:stroke markers fill"
       d="m 20.556595,2.0661458 -3.13086,0.9453125 A 18.747833,18.747833 0 0 1 7.1562034,3.1696614 L 3.9960472,2.3220052 4.9413597,5.4528646 A 18.747834,18.747834 0 0 1 5.1425316,6.2888021 L 6.0351097,6.5270833 A 15.498208,15.498208 0 0 0 14.525344,6.3962239 l 2.589844,-0.7792968 -0.701172,2.6113281 a 15.498217,15.498217 0 0 0 0.13086,8.4902348 l 0.267578,0.884765 a 18.747844,18.747844 0 0 1 0.839844,0.173828 l 3.160156,0.84961 -0.945312,-3.13086 A 18.747843,18.747843 0 0 1 19.708938,5.2243489 Z M 15.109329,7.6110677 13.177688,8.1930989 A 11.567815,11.567815 0 0 1 6.8417503,8.2907552 L 4.8925316,7.7692708 5.4745629,9.7009114 A 7.6051183,7.6051183 0 0 1 4.7753441,15.706771 l -3.6816407,6.359375 6.2421875,-3.875 A 7.6051204,7.6051204 0 0 1 13.318313,17.30638 l 1.949219,0.523438 -0.582031,-1.933594 a 11.567821,11.567821 0 0 1 -0.09766,-6.3359376 z" /><path
       id="path3-8"
       style="fill:#800000;stroke-width:0.265491;paint-order:stroke markers fill"
       transform="matrix(0,0,0,0,-7.6042414,5.767764)"
       d="m 100.86819,141.03352 -14.492313,8.0671 a 95.07007,95.07007 135 0 0 -36.82834,36.82834 l -8.067091,14.4923 -8.067091,-14.4923 A 95.070076,95.070076 45.000001 0 0 -3.4149848,149.10062 l -14.4923102,-8.0671 14.4923075,-8.06709 A 95.070023,95.070023 135 0 0 33.413353,96.138091 l 8.067093,-14.492309 8.067093,14.492309 A 95.070017,95.070017 44.999997 0 0 86.37588,132.96643 Z"
       inkscape:original-d="M 100.86819,141.03352 62.71711,162.27019 41.480446,200.42126 20.243782,162.27019 -17.907295,141.03352 20.243782,119.79686 41.480446,81.645782 62.71711,119.79686 Z"
       inkscape:path-effect="#path-effect4-4" /></g></svg>

<?xml version="1.0" encoding="UTF-8"?>
<!-- Created with Inkscape (http://www.inkscape.org/) -->
<svg id="svg1" version="1.1" viewBox="0 0 24 24" xml:space="preserve" xmlns="http://www.w3.org/2000/svg" xmlns:xlink="http://www.w3.org/1999/xlink"><g id="layer1" transform="translate(1.2237 -.066146)"><image id="image1" x="174.23" y="132.2" width="6.6146" height="6.6146" image-rendering="optimizeQuality" preserveAspectRatio="none" xlink:href="data:image/png;base64,iVBORw0KGgoAAAANSUhEUgAAABkAAAAZCAYAAADE6YVjAAAABHNCSVQICAgIfAhkiAAAAXZJREFU
SInt1c1KVWEUxvG3c47mB07siMopcpCzkO7AWxARHGjiKBpYEE0bRjMbldSgHDbrDoJyFASCVyCk
iJUaqNBEz6/BXtFG/Gp79iif6eZd/7WeZ73vTulSZQsD6Cwb8A7jZUIeo4mPuH6eM5UCnLWU0k5K
aTSl9AgdBWqcLtTwAPvYxT1UW1W8ihvoRAfmcYjvmLkwCFcxiWU8DGAvXkc+33C/kHVR/A4WsCPT
D8yign68xQH28Bw3jyt0JQ60oRt1DEfni/ga3ea1GRa14RpeRkZNfI4mGqjlQe2x/6N4gk/YdrpW
cDvON/A+920rMus7Ok0NXdHZrZjkFVaPmWQD0zFJPezcly3CEqai6bOXIYqM4EV0RxbyXX8zeRPF
f+IZGv8cfs7OMXzBXAB6ZaE3sRbg9kKAHKiCIdly9ITnB1jHOIq8HifCqrL361dYNNNSQEAmZHel
iacXtugEyJ9X+AMGWw4ISPn/kwANoqtUyP+r33T2WdwzhxiHAAAAAElFTkSuQmCC
"/><path id="path3-6" d="m20.557 2.0661-3.1309 0.94531a18.748 18.748 0 0 1-10.27 0.1582l-3.1602-0.84766 0.94531 3.1309a18.748 18.748 0 0 1 0.20117 0.83594l0.89258 0.23828a15.498 15.498 0 0 0 8.4902-0.13086l2.5898-0.7793-0.70117 2.6113a15.498 15.498 0 0 0 0.13086 8.4902l0.26758 0.88476a18.748 18.748 0 0 1 0.83984 0.17383l3.1602 0.84961-0.94531-3.1309a18.748 18.748 0 0 1-0.1582-10.271zm-5.4473 5.5449-1.9316 0.58203a11.568 11.568 0 0 1-6.3359 0.097656l-1.9492-0.52148 0.58203 1.9316a7.6051 7.6051 0 0 1-0.69922 6.0059l-3.6816 6.3594 6.2422-3.875a7.6051 7.6051 0 0 1 5.9824-0.88477l1.9492 0.52344-0.58203-1.9336a11.568 11.568 0 0 1-0.09766-6.3359z" style="paint-order:stroke markers fill"/><path id="path3-8" transform="matrix(0 0 0 0 -7.6042 5.7678)" d="m100.87 141.03-14.492 8.0671a95.07 95.07 135 0 0-36.828 36.828l-8.0671 14.492-8.0671-14.492a95.07 95.07 45 0 0-36.828-36.828l-14.492-8.0671 14.492-8.0671a95.07 95.07 135 0 0 36.828-36.828l8.0671-14.492 8.0671 14.492a95.07 95.07 45 0 0 36.828 36.828z" fill="#800000" stroke-width=".26549" style="paint-order:stroke markers fill"/></g></svg>
